icon/cg/corner-left-down.svg

<svg viewBox="0 0 24 24" fill="none" xmlns="http://www.w3.org/2000/svg" height="1em" width="1em">
  <path d="M10.6013 6.84996C10.6023 5.74539 11.4986 4.85079 12.6032 4.85181L20.6032 4.8592L20.605 2.8592L12.605 2.85181C10.3959 2.84977 8.60335 4.63897 8.60131 6.84811L8.59179 17.1538L4.81054 13.3656L3.39502 14.7785L9.7531 21.1483L16.1229 14.7902L14.71 13.3747L10.5915 17.4856L10.6013 6.84996Z" fill="currentColor"/>
</svg>

<svg width="24" height="24" fill="none" xmlns="http://www.w3.org/2000/svg"><path d="M10.601 6.85a2 2 0 0 1 2.002-1.998l8 .007.002-2-8-.007a4 4 0 0 0-4.004 3.996l-.01 10.306-3.78-3.788-1.416 1.412 6.358 6.37 6.37-6.358-1.413-1.415-4.119 4.11.01-10.635Z" fill="currentColor"/></svg>
